X:120
T:Jackson's Trip to Dover
R:jig
H:Related to Connie the Soldier, #212
D:Skylark
Z:id:hn-jig-120
M:6/8
K:Ador
~A3 ABc|BAG E2D|EFG EFG|EFG EFG|~A3 ABc|BAB GAB|cBc A2G|FDD DEG||~A3 ABc|BAG E2D|
~A3 ABc|BAG E2D|EFG EFG|EFG EFG|~A3 ABc|BAB GAB|cBc A2G|FDD D2e|:fdd edd|fdd def|
gfg e2d|^cAA A2e|fdd ede|1 gfe d=cB|~A3 ABc|BAG E2e:|2 gfe d=cB||

